outputs/icons/navigation/arrow_forward_round.svg

<svg width="1200" height="1200" viewBox="0 0 1200 1200" fill="none" xmlns="http://www.w3.org/2000/svg"><g clip-path="url(#clip0_225_2885)"><path d="M250 650H808.5L564.5 894C545 913.5 545 945.5 564.5 965C584 984.5 615.5 984.5 635 965L964.5 635.5C984 616 984 584.5 964.5 565L635.5 234.999C616 215.498 584.5 215.498 565 234.999C545.5 254.499 545.5 285.998 565 305.498L808.5 550H250C222.5 550 200 572.5 200 600C200 627.5 222.5 650 250 650Z" fill="black"/></g><defs><clipPath id="clip0_225_2885"><path width="24" fill="white" d="M0 0H1200V1200H0V0z"/></clipPath></defs></svg>

<svg xmlns="http://www.w3.org/2000/svg" width="1200" height="1200" fill="none"><g clip-path="url(#a)"><path fill="#000" d="M250 650h558.5l-244 244c-19.5 19.5-19.5 51.5 0 71s51 19.5 70.5 0l329.5-329.5c19.5-19.5 19.5-51 0-70.5l-329-330.001c-19.5-19.501-51-19.501-70.5 0-19.5 19.5-19.5 50.999 0 70.499L808.5 550H250c-27.5 0-50 22.5-50 50s22.5 50 50 50"/></g><defs><clipPath id="a"><path fill="#fff" d="M0 0h1200v1200H0z"/></clipPath></defs></svg>
